public/icons/icon/size-medium.svg

<svg width="30" height="30" viewBox="0 0 30 30" fill="none" xmlns="http://www.w3.org/2000/svg">
<path d="M5 5.7915H9.69336L14.6504 17.8853H14.8613L19.8184 5.7915H24.5117V23.7915H20.8203V12.0757H20.6709L16.0127 23.7036H13.499L8.84082 12.0317H8.69141V23.7915H5V5.7915Z" fill="black"/>
</svg>

<svg xmlns="http://www.w3.org/2000/svg" width="30" height="30" fill="none"><path fill="#000" d="M5 5.792h4.693l4.957 12.093h.211l4.957-12.094h4.694v18H20.82V12.076h-.15l-4.657 11.628h-2.514L8.841 12.032h-.15v11.76H5v-18Z"/></svg>
